!!!COM: Beethoven, Ludwig van
!!!CDT: 1770///-1827///
!!!OTL: Piano Sonata no. 2 in A major
!!!ODT: 1794///-1795///
!!!ODE: Joseph Haydn
!!!OMD: Rondo: Grazioso
!!!OPS: 2
!!!ONM: 2
!!!OMV: 4
**kern	**kern	**dynam
*staff2	*staff1	*staff1/2
*Ipiano	*Ipiano	*Ipiano
*>[A,B,B1,B,B2,C]	*>[A,B,B1,B,B2,C]	*>[A,B,B1,B,B2,C]
*>norep[A,B,B2,C]	*>norep[A,B,B2,C]	*>norep[A,B,B2,C]
*>A	*>A	*>A
*clefF4	*clefG2	*clefG2
*k[f#c#g#]	*k[f#c#g#]	*k[f#c#g#]
*A:	*A:	*A:
*M4/4	*M4/4	*M4/4
*MM120	*MM120	*MM120
=1-	=1-	=1-
16AALL	4r	p
16C#	.	.
16E	.	.
16AJJ	.	.
4r	24c#LL	.
.	24e	.
.	24aJJ	.
.	32cc#LLL	.
.	32ee	.
.	32aa	.
.	32ccc#JJJ	.
8AL	4eee'	.
8e	.	.
8c#	4eee'	.
8eJ	.	.
=2	=2	=2
8BL	(8eeeL	.
8e	16g#Jk)	.
.	16r	.
8d	2g#	.
8eJ	.	.
8BL	.	.
8e	.	.
8d	4g#	.
8eJ	.	.
=3	=3	=3
8c#L	(4a\	.
8e	.	.
8G#	4b	.
8eJ	.	.
8AL	4cc#	.
8e	.	.
8F#	4dd)	.
8AJ	.	.
=4	=4	=4
.	(cc#q8	.
8EL	(4.eez)	.
8c#	.	.
8A	.	.
8c#J	16ddLL	.
.	16cc#JJ	.
8EL	4b)	.
8G#	.	.
8D	4r	.
8G#J	.	.
=5	=5	=5
8C#L	8r	.
8A	16ALL	.
.	16c#JJ	.
8E	24eLL	.
.	24a	.
.	24cc#	.
8AJ	24ee	.
.	24aa	.
.	24ccc#JJ	.
8BBL	4eee'	.
8G#	.	.
8E	4eee'	.
8G#J	.	.
=6	=6	=6
8AA#L	(8eeeL	.
8F#	16f#Jk)	.
.	16r	.
8E	2f#	.
8F#J	.	.
8C#L	.	.
8A#X	.	.
8E	4f#	.
8A#J	.	.
=7	=7	=7
*^	*	*
8EL	2.BB	(8g#L	.
8B	.	16aL	.
.	.	16g#JJ	.
8G#	.	8f#L	.
8BJ	.	8g#J	.
8F#L	.	8bL	.
8B	.	8a	.
8An	4BB	8f#	.
8BJ	.	8d#J)	.
=8	=8	=8	=8
8r	2.E	(2d# 2f#	.
(8AL	.	.	.
8B	.	.	.
8AJ)	.	.	.
4G#	.	8e)	.
.	.	(8eeL	.
4rA	4rGG	8b	.
.	.	8cc#J)	.
=9	=9	=9	=9
*	*	*^	*
2r	[1Ez	2dd	8r	.
.	.	.	(8bL	.
.	.	.	8f#	.
.	.	.	8g#J)	.
8rA	.	2cc#	2a	.
(<8AL	.	.	.	.
8c#	.	.	.	.
8d#J)	.	.	.	.
*v	*v	*	*	*
=10	=10	=10	=10
2E_	2.g# 2.b	(8eL	.
.	.	8d#)	.
.	.	8e'	.
.	.	8f#'J	.
8E]	.	4e	.
(8EL	.	.	.
8BB	4rff	4re	.
8C#J)	.	.	.
=11	=11	=11	=11
*^	*	*	*
!	!	!	!	!LO:DY:rj
2D	[1EE	8r	2B	sf
.	.	(<8bL	.	.
.	.	8f#	.	.
.	.	8g#J)	.	.
4C#	.	2a	8r	.
.	.	.	(>8AL	.
4F#	.	.	8c#	.
.	.	.	8d#J)	.
*	*	*v	*v	*
=12	=12	=12	=12
4E	(>8EEL]	4B 4e 4g#	.
.	8DD#	.	pp
4r	8EE	4r	.
.	8FF#'>J)	.	.
2ryyy	(8EE'L	2r	.
.	8DDn'	.	.
.	8CC#'	.	.
.	8BBB'J)	.	.
*v	*v	*	*
=13	=13	=13
8AAAL	8r	.
8E	16ALL	.
.	16c#JJ	.
8C#	24eLL	.
.	24a	.
.	24cc#	.
8EJ	24ee	.
.	24aa	.
.	24ccc#JJ	.
8AAL	4eee'	.
8E	.	.
8C#	4eee'	.
8EJ	.	.
=14	=14	=14
8BBL	(8eeeL	.
8E	16g#Jk)	.
.	16r	.
8D	2g#	.
8EJ	.	.
8BBL	.	.
8E	.	.
8C#	4a	.
8AJ	.	.
=15	=15	=15
*	*^	*
8DL	2ryyy	8.bSSSL	.
8B	.	.	.
.	.	16cc#Jk	.
8F#	.	12dd'>L	.
.	.	12ee'>	.
8BJ	.	.	.
.	.	12ff#'>J	.
8EL	(4a	4ryyy	.
8c#	.	.	.
8E	8cc#L	4g#	.
8dJ	8bJ)	.	.
*	*v	*v	*
=16	=16	=16
*^	*	*
8r	2.A	2g# (>2b	.
(8dL	.	.	.
8e	.	.	.
8dJ)	.	.	.
4c#	.	8a)	.
!	!	!LO:TX:b:i:t=dolce	!
.	.	16ff#LL	.
.	.	16eeJJ	.
4ry	4r	16ddLL	.
.	.	16cc#	.
.	.	16b	.
.	.	16aJJ	.
*v	*v	*	*
=17	=17	=17
4r	16g#LL	.
.	16a	.
.	16b	.
.	16aJJ	.
16BLL	4g#	.
16d	.	.
16e	.	.
16dJJ	.	.
4B	8r	.
.	16eeLL	.
.	16ddJJ	.
4r	16cc#LL<	.
.	16b	.
.	16a	.
.	16g#JJ	.
=18	=18	=18
*	*^	*
4r	16aLL>	4ryyy	.
.	16b	.	.
.	16cc#	.	.
.	16bJJ	.	.
4ry	4a	16c#LL	.
.	.	16e	.
.	.	16a	.
.	.	16eJJ	.
4ry	8r	4c#	.
.	16aaLL	.	.
.	16gg#JJ	.	.
4r	16ff#LL	4ryyy	.
.	16ee	.	.
.	16dd	.	.
.	16cc#JJ	.	.
*	*v	*v	*
=19	=19	=19
4d> 4f#>	16bLL>	.
.	16dd	.
.	16ff#	.
.	16eeJJ	.
4r	16ddLL>	.
.	16cc#	.
.	16b	.
.	16aJJ	.
4E 4B 4d	16g#LL	.
.	16a	.
.	16b	.
.	16aJJ	.
4r	16g#LL	.
.	16f#	.
.	16e	.
.	16dJJ	.
=20	=20	=20
4A	16c#LL	.
.	16a	.
.	16e	.
.	16cc#JJ	.
4r	16aLL	.
.	16ee	.
.	16cc#	.
.	16aaJJ	.
2r	16eeLL	.
.	16ccc#	.
.	16aa	.
.	16eeeJJ	.
.	16dddLL	.
.	16ccc#	.
.	16bb	.
.	16aaJJ	.
*clefG2	*	*
=21	=21	=21
4r	16gg#LL	.
.	16aa	.
.	16bb	.
.	16aaJJ	.
16bLL	4gg#	.
16dd	.	.
16ee	.	.
16ddJJ	.	.
4b	16r	.
.	16ddd#LL	.
.	16eee	.
.	16dddnJJ	.
4r	16ccc#LL	.
.	16bb	.
.	16aa	.
.	16gg#JJ	.
=22	=22	=22
4r	16aaLL	.
.	16bb	.
.	16ccc#	.
.	16bbJJ	.
16cc#LL	4aa	.
16ee	.	.
16aa	.	.
16eeJJ	.	.
4cc#	8r	.
.	16ccc#LL	.
.	16bbJJ	.
4r	16aaLL	.
.	16gg#	.
.	16ff#	.
.	16eeJJ	.
=23	=23	=23
4f# 4a	16dd#LL	.
.	16ff#	.
.	16aa	.
.	16gg#JJ	.
4r	16ff#LL	.
.	16ee	.
.	16dd#	.
.	16cc#JJ	.
4d#' 4f#'	16bLL	.
.	16dd#	.
.	16ff#	.
.	16eeJJ	.
4r	16dd#LL	.
.	16cc#	.
.	16b	.
.	16aJJ	.
=24	=24	=24
4e'	16g#LL<	.
.	16e	.
.	16b	.
.	16g#JJ	.
4r	16eeLL	.
.	16b	.
.	16gg#	.
.	16eeJJ	.
8r	16bbLL	.
.	16gg#	.
*clefF4	*	*
8E 8G#L	16eee	.
.	16ddd#JJ	.
8F# 8A	16ccc#LL	.
.	16bb	.
8G# 8BJ	16aa	.
.	16gg#JJ	.
=25	=25	=25
4A 4c#	16ff#LL	.
.	16aa	.
.	16ccc#	.
.	16bbJJ	.
4r	16aaLL	.
.	16gg#	.
.	16ff#	.
.	16eeJJ	.
4BB 4D# 4F# 4A	16dd#LL	.
.	16ee	.
.	16dd#	.
.	16cc#JJ	.
4r	16bLL	.
.	16a	.
.	16g#	.
.	16f#JJ	.
=26	=26	=26
16ELL	4e	.
16B	.	.
16G#	.	.
16BJJ	.	.
16eLL	4r	.
16B	.	.
16G#	.	.
16BJJ	.	.
16ELL	4r	.
16B	.	.
16G#	.	.
16BJJ	.	.
16ELL	(8bL	.
16B	.	.
16G#	8eeJ)	.
16BJJ	.	.
=27	=27	=27
16ALL	(8eeL	.
16B	.	.
16F#	8dd#)	.
16BJJ	.	.
16D#LL	(8cc#M	.
16B	.	.
16BB	8bJ)	.
16BJJ	.	.
16AALL	4b'	.
16B	.	.
16BB	.	.
16BJJ	.	.
16AALL	4b'	.
16B	.	.
16BB	.	.
16BJJ	.	.
=28	=28	=28
16GG#LL	4b	.
16B	.	.
16BB	.	.
16BJJ	.	.
.	(bq8	.
16ELL	4.gg#z)	.
16B	.	.
16G#	.	.
16BJJ	.	.
16ELL	.	.
16B	.	.
16G#	(16aaLL	.
16BJJ	16gg#JJ)	.
16ELL	8ff#'L	.
16B	.	.
16G#	8ee'J	.
16BJJ	.	.
=29	=29	=29
16ALL	(8eeL	.
16B	.	.
16F#	8dd#)	.
16BJJ	.	.
16D#LL	(8cc#M	.
16B	.	.
16BB	8bJ)	.
16BJJ	.	.
16AALL	4b'	.
16B	.	.
16BB	.	.
16BJJ	.	.
16AALL	4b'	.
16B	.	.
16BB	.	.
16BJJ	.	.
=30	=30	=30
16GG#LL	4b	.
16B	.	.
16BB	.	.
16BJJ	.	.
.	(16bqLL	.
.	16eeq	.
.	16gg#qJJ	.
16ELL	4.bbz)	.
16B	.	.
16G#	.	.
16BJJ	.	.
16ELL	.	.
16B	.	.
16G#	(16ccc#LL	.
16BJJ	16bbJJ	.
16ELL	16aaLL	.
16B	16gg#	.
16G#	16ff#	.
16BJJ	16eeJJ)	.
=31	=31	=31
16ALL	(8eeML	.
16B	.	.
16F#	8dd#)	.
16BJJ	.	.
16D#LL	(8cc#M	.
16B	.	.
16BB	8bJ)	.
16BJJ	.	.
16AALL	4b'	.
16B	.	.
16BB	.	.
16BJJ	.	.
16AALL	4b'	.
16B	.	.
16BB	.	.
16BJJ	.	.
=32	=32	=32
*	*^	*
16GG#LL	8b/	2ryyy	.
16B	.	.	.
16G#	4e 4ee	.	sf
16BJJ	.	.	.
16GG#LL	.	.	.
16B	.	.	.
16G#	8dn 8ddn	.	.
16BJJ	.	.	.
16GGnLL	4cc#SsS	4.c#	.
16A	.	.	.
16Gn	.	.	.
16AJJ	.	.	.
16GGLL	(<8cc#L	.	.
16A	.	.	.
16G	8eeJ)	8e	.
16AJJ	.	.	.
*	*v	*v	*
=33	=33	=33
16FF#LL	4e^ (4ee^	.
16A	.	.
16F#	.	.
16AJJ	.	.
16FF#LL	4d 4dd)	.
16A	.	.
16F#	.	.
16AJJ	.	.
16FF#LL	4r	.
16G#X	.	.
16F#	.	.
16G#JJ	.	.
16FF#LL	4B# 4b#	.
16G#	.	.
16F#	.	.
16G#JJ	.	.
=34	=34	=34
*	*^	*
16EELL	8d# 8dd#	2ryyy	.
16G#	.	.	.
16E	4c#^ 4cc#^	.	.
16G#JJ	.	.	.
16EELL	.	.	.
16G#	.	.	.
16E	8Bn 8bn	.	.
16G#JJ	.	.	.
16EELL<	4a#SsS	4.A#	.
16F#	.	.	.
16E	.	.	.
16F#JJ	.	.	.
16EELL<	(<8a#L	.	.
16F#	.	.	.
16E	8cc#J)	8c#	.
16F#JJ	.	.	.
*	*v	*v	*
=35	=35	=35
16DD#LL	(4c#^ (4cc#^	.
16F#	.	.
16D#X	.	.
16F#JJ	.	.
16DD#LL	4B) 4b)	.
16F#	.	.
16D#	.	.
16F#JJ	.	.
16DDnLL	4r	.
16E	.	.
16Dn	.	.
16EJJ	.	.
16DDLL	4G# 4g#	.
16E	.	.
16D	.	.
16EJJ	.	.
=36	=36	=36
16CC#LL	8An 8an	.
16E	.	.
16C#	4a^	.
16EJJ	.	.
16CC#LL	.	.
16E	.	.
16C#	4e^ 4ee^	.
16EJJ	.	.
16BBBLL	.	.
16E	.	.
16BB	4g#^/ 4dd^/	.
16EJJ	.	.
16AAALL	.	.
16E	.	.
16AA	8a/ 8cc#/	.
16EJJ	.	.
=37	=37	=37
16EELL	4g# 4b	.
16E	.	.
16FF#	.	.
16EJJ	.	.
16GG#LL	4r	.
16E	.	.
16AA	.	.
16EJJ	.	.
16BBLL	4r	.
16E	.	.
16C#	.	.
16EJJ	.	.
16DLL	8r	.
16E	.	.
16BB	(8g# (8gg#	.
16EJJ	.	.
=38	=38	=38
16C#LL	8a) 8aa)	.
16E	.	.
16AA	4a^ 4aa^	.
16EJJ	.	.
16CC#LL	.	.
16E	.	.
16C#	4e^\ 4ee^\	.
16EJJ	.	.
16BBBLL	.	.
16E	.	.
16BB	4g#^ 4dd^	.
16EJJ	.	.
16AAALL	.	.
16E	.	.
16AA	8a 8cc#	.
16EJJ	.	.
=39	=39	=39
16EE'LL	4g# 4b	pp
16E	.	.
16FF#'	.	.
16EJJ	.	.
16GG#'LL	4r	.
16E	.	.
16AA'	.	.
16EJJ	.	.
16AA#'LL	2r	.
16E	.	.
16BB'	.	.
16EJJ	.	.
16BB#'LL	.	.
16E	.	.
16C#'	.	.
16EJJ	.	.
=40	=40	=40
16D'LL>	1r	.
16E	.	.
16C#'	.	.
16EJJ	.	.
16BBn'LL	.	.
16E	.	.
16AAn'	.	.
16EJJ	.	.
16GG#'LL	.	.
16E	.	.
16FF#'	.	.
16EJJ	.	.
16GG#'LL	.	.
16E	.	.
16EE'	.	.
16EJJ	.	.
=41	=41	=41
24AAALL	4r	.
24CC#	.	.
24EE	.	.
24AA	.	.
24C#	.	.
24EJJ	.	.
32A/	32r	.
32r	32c#LLL	.
16r	32e	.
.	32a	.
8r	32cc#	.
.	32ee	.
.	32aa	.
.	32ccc#JJJ	.
8AL	4eee'	.
8e	.	.
8c#	4eee'	.
8eJ	.	.
=42	=42	=42
8BL	(8eeeL	.
8e	16g#Jk)	.
.	16r	.
8d	2g#	.
8eJ	.	.
8BL	.	.
8e	.	.
8d	4g#	.
8eJ	.	.
=43	=43	=43
8c#L	8.aL	.
8A	.	.
.	16eJk	.
8G#	8.bL	.
8EJ	.	.
.	16eJk	.
8AL	8.cc#L	.
8c#	.	.
.	16aJk	.
8F#	8.ddL	.
8AJ	.	.
.	16aJk	.
=44	=44	=44
8EL	(4.eez	.
8c#	.	.
8A	.	.
8c#J	16ddLL	.
.	16cc#JJ)	.
8EL	4b	.
8G#	.	.
8D	4r	.
8G#J	.	.
=45	=45	=45
8C#L	8r	.
8A	16ALL	.
.	16c#JJ	.
8E	24eLL	.
.	24a	.
.	24cc#	.
8AJ	24ee	.
.	24aa	.
.	24ccc#JJ	.
8BBL	4eee'	.
8G#	.	.
8E	4eee'	.
8G#J	.	.
=46	=46	=46
8AA#L	(8eeeL	.
8F#	16f#Jk)	.
.	16r	.
8E	2f#	.
8F#J	.	.
8C#L	.	.
8A#X	.	.
8E	4f#	.
8A#J	.	.
=47	=47	=47
*^	*	*
8EL	2.BB	(8g#L	.
8B	.	16aL	.
.	.	16g#JJ	.
8G#	.	8f#L	.
8BJ	.	8g#J	.
8F#L	.	8bL	.
8B	.	8a	.
8An	4BB	8f#	.
8BJ	.	8d#J)	.
=48	=48	=48	=48
8r	2.E	2d# (>2f#	.
(8AL	.	.	.
8B	.	.	.
8AJ)	.	.	.
4G#	.	8e)	.
.	.	(8eeL	.
4r	4r	8b	.
.	.	8cc#J)	.
=49	=49	=49	=49
*	*	*^	*
!	!LO:DY:rj	!	!	!
2r	[1Ez	2dd	8r	.
.	.	.	(>8bL	.
.	.	.	8f#	.
.	.	.	8g#J)	.
8rA	.	2cc#	2a	.
(8AL	.	.	.	.
8c#	.	.	.	.
8d#J)	.	.	.	.
*v	*v	*	*	*
=50	=50	=50	=50
2E_	2.g# 2.b	(8eL	.
.	.	8d#)	.
.	.	8e'	.
.	.	8f#'J	.
8E]	.	4e	.
(8EL<	.	.	.
8BB	4r	4r	.
8C#J)	.	.	.
=51	=51	=51	=51
*^	*	*	*
!	!	!	!	!LO:DY:rj
2D	[1EE	8r	2B	sf
.	.	(8bL	.	.
.	.	8f#	.	.
.	.	8g#J)	.	.
4C#	.	2a	8rc	.
.	.	.	(>8AL	.
4F#	.	.	8c#	.
.	.	.	8d#J)	.
*	*	*v	*v	*
=52	=52	=52	=52
4E	(>8EEL]	4B 4e 4g#	pp
.	8DD#	.	.
4r	8EE	4r	.
.	8FF#'>J)	.	.
2ryy	(8EE'L	2r	.
.	8DDn'	.	.
.	8CC#'	.	.
.	8BBB'J)	.	.
*v	*v	*	*
=53	=53	=53
8AAAL	22AA<LL>	.
.	22C#<	.
.	22E<	.
8E	.	.
.	22A<	.
.	22c#<	.
.	22e	.
8C#	.	.
.	22a	.
.	22cc#	.
.	22ee	.
8EJ	.	.
.	22aa	.
.	22ccc#JJ	.
8AAL<	4eee'	.
8E	.	.
8C#	4eee'	.
8EJ	.	.
=54	=54	=54
8BBL	(8eeeL	.
8E	16g#Jk)	.
.	16r	.
8D	(2g#	.
8EJ	.	.
8BBL	.	.
8E	.	.
8C#	4a)	.
8AJ	.	.
=55	=55	=55
*	*^	*
8DL	2ryyy	8.bSSsL	.
8B	.	.	.
.	.	16cc#Jk	.
8F#	.	12dd'>L	.
.	.	12ee'>	.
8BJ	.	.	.
.	.	12ff#'>J	.
8EL	(4an	4ryyy	.
8c#	.	.	.
8E	8cc#L	4g#	.
8dJ	8bJ)	.	.
*	*v	*v	*
=56	=56	=56
*^	*	*
8r	2.A	2g# (>2b	.
(8dL	.	.	.
8e	.	.	.
8dJ)	.	.	.
4c#	.	12a)	.
.	.	12eL	.
.	.	12fnJ	.
4ry	4r	12f#L	.
.	.	12gn	.
.	.	12g#J	.
*v	*v	*	*
=57!|:	=57!|:	=57!|:
*>B	*>B	*>B
*k[]	*k[]	*k[]
*a:	*a:	*a:
!	!	!LO:DY:rj
4AA 4C 4E 4A	12r	ff
.	12a'L<	.
.	12b-'J	.
4A 4c 4e	12bn'L	.
.	12cc'	.
.	12cc#'J	.
4r	12dd'L	.
.	12dd#'	.
.	12ee'J	.
8.A 8.c 8.eL	(12ffzL	.
.	12ee)	.
.	12a'J	.
16A 16c 16eJk	.	.
=58	=58	=58
4B 4d 4e	12r	.
.	12g#'L<	.
.	12a'J	.
4B 4d 4e	12a#'L	.
.	12b'	.
.	12cc'J	.
4r	12cc#'L	.
.	12dd'	.
.	12dd#'J	.
8.B 8.d 8.eL	(12eezL	.
.	12ddn)	.
.	12g#'J	.
16B 16d 16eJk	.	.
=59	=59	=59
4c 4e	12r	.
.	12a'L<	.
.	12b'J	.
4r	12ccn'L	.
.	12cc#'	.
.	12dd'J	.
2r	12dd#'L	.
.	12ee'	.
.	12ff'J	.
.	12ff#'L	.
.	12gg'	.
.	12gg#'J	.
=60	=60	=60
4r	12aa'L	.
.	12ee'	.
.	12ffn'J	.
4D 4F 4B	(12ddnzL	.
.	12ff)	.
.	12b'J	.
4E 4A 4c	(12ccnzL	.
.	12ee)	.
.	12a'J	.
4E 4B 4d	(12bzL	.
.	12dd)	.
.	12g#'J	.
=61	=61	=61
!!LO:TX:b:i:t=staccato
12r	4c 4e 4a	.
12AA'L	.	.
12BB-'J	.	.
12BBn'L	4c 4e 4a	.
12C'	.	.
12C#'J	.	.
*Xtuplet	*	*
12D'L	4r	.
12D#'	.	.
12E'J	.	.
!LO:DY:rj	!	!
(12FzL	8.c 8.e 8.aL	.
12E)	.	.
12AA'J	.	.
.	16c 16e 16aJk	.
=62	=62	=62
12r	4f 4a 4dd 4ff	.
12DD'L	.	.
12EE'J	.	.
12FF'L	4f 4a 4dd 4ff	.
12FF#'	.	.
12GG'J	.	.
12GG#'L	4r	.
12AA'	.	.
12BB-'J	.	.
!LO:DY:rj	!	!
(12BBnzL	8.f 8.a 8.dd 8.ffL	.
12AA)	.	.
12DD'J	.	.
.	16f 16a 16dd 16ffJk	.
=63	=63	=63
12r	4f 4g 4b 4dd 4ff	.
12GGG'L	.	.
12AAA'J	.	.
12BBB'L	4f 4g 4b 4dd 4ff	.
12CC'	.	.
12DD'J	.	.
12EE'L	4r	.
12FF'	.	.
12GG'J	.	.
12AA'L	8.f 8.g 8.b 8.dd 8.ffL	.
12BB'	.	.
12C'J	.	.
.	16f 16g 16b 16dd 16ffJk	.
=64	=64	=64
12D'L	4f 4g 4b 4dd 4ff	.
12E'	.	.
12F'J	.	.
12G'L	8.f 8.g 8.b 8.dd 8.ffL	.
12A'	.	.
12B'J	.	.
.	16f 16g 16b 16dd 16ffJk	.
12c'L	4e\ 4g\ 4cc\ 4ee\	.
12B'	.	.
12A'J	.	.
12G'L	8.e 8.g 8.cc 8.eeL<	.
12F'	.	.
12E'J	.	.
.	16e 16g 16cc 16eeJk	.
=65	=65	=65
*	*Xtuplet	*
12F'L	4d 4f 4a 4dd	.
12G'	.	.
12A'J	.	.
12F#'L	8.c 8.e- 8.f# 8.a 8.ccL	.
12G'	.	.
12A'J	.	.
.	16c 16e- 16f# 16a 16ccJk	.
12GG'L<	4c 4en 4g 4cc	.
12C'	.	.
12E'J	.	.
(12GL	4B 4d 4fn 4g 4b	.
12Fn)	.	.
12D'J	.	.
=66	=66	=66
*>B1	*>B1	*>B1
12C'L	4c 4e 4g 4cc	.
12G'	.	.
12E'J	.	.
12C'L	4r	.
12GG'	.	.
12EE'J	.	.
4CC	12r	.
.	12e'L	.
.	12f'J	.
4r	12f#'L	.
.	12g'	.
.	12g#'J	.
=67:|!	=67:|!	=67:|!
*>B2	*>B2	*>B2
12C'L	4c 4e 4g 4cc	.
12G'	.	.
12E'J	.	.
12C'L	4r	.
12GG'	.	.
12EE'J	.	.
4CC	12r	.
.	12G'L	.
.	12A-'J	.
4r	12An'L	.
.	12B-'	.
.	12Bn'J	.
=68||	=68||	=68||
*>C	*>C	*>C
4C 4E 4G	12c'L	ff
.	12c#'	.
.	12d'J	.
!	!LO:TX:b:i:t=staccato	!
4r	12e-'L	.
.	12en'	.
.	12f'J	.
2r	12f#'L	.
.	12g'	.
.	12g#'J	.
.	12a'L	.
.	12b-'	.
.	12bn'J	.
=69	=69	=69
*	*^	*
12r	(4ccz	2d	.
12GG'L	.	.	.
12AA'J	.	.	.
12AA#'L	4b)	.	.
12BB'	.	.	.
12C'J	.	.	.
12C#'L	2r	2ry	.
12D'	.	.	.
12D#'J	.	.	.
12En'L	.	.	.
12F'	.	.	.
12F#'J	.	.	.
*	*v	*v	*
=70	=70	=70
*^	*	*
(4Gz<	2D	12r	.
.	.	12d'L	.
.	.	12e'J	.
4Fn)	.	12f'L	.
.	.	12f#'	.
.	.	12g'J	.
2ry	2r	12g#'L	.
.	.	12a'	.
.	.	12b-'J	.
.	.	12bn'L>	.
.	.	12cc'	.
.	.	12cc#'J	.
*v	*v	*	*
=71	=71	=71
*	*^	*
12r	(4ddz<	2e	.
12AA'L	.	.	.
12BB'J	.	.	.
12C'L	4ccn)	.	.
12C#'	.	.	.
12D'J	.	.	.
12D#'L	2r	2ry	.
12E'	.	.	.
12F'J	.	.	.
12F#'L	.	.	.
12G'	.	.	.
12G#'J	.	.	.
*	*v	*v	*
=72	=72	=72
*^	*	*
(4Az<	2E	12r	.
!	!	!LO:TX:a:i:t=staccato	!
.	.	12e'L	.
.	.	12f#'J	.
4Gn)	.	12g'L	.
.	.	12a'	.
.	.	12a#'J	.
2ry	2r	12b'L	.
.	.	12cc'	.
.	.	12cc#'J	.
.	.	12dd'L	.
.	.	12dd#'	.
.	.	12ee'J	.
*v	*v	*	*
=73	=73	=73
2.D# 2.F# 2.A 2.B	12ee#'L	.
.	12ff#'	.
.	12gg'J	.
.	12gg#'L	.
.	12aa'	.
.	12aa#'J	.
.	(12bbL	.
.	12b)	.
.	12ccc'J	.
4D# 4F# 4B	(12aanL	.
.	12b)	.
.	12bb'J	.
=74	=74	=74
4E 4G 4B	(12ggnL	.
.	12b)	.
.	12aa'J	.
4A 4c	(12ff#L	.
.	12a)	.
.	12gg'J	.
4B	(12eeL	.
.	12g)	.
.	12ff#'J	.
4BB 4A	(12dd#L	.
.	12f#X)	.
.	12ff#'J	.
=75	=75	=75
4E 4G#	(12eeL	.
.	12g#)	.
.	12ffn'J	.
4r	(12ddnL	.
.	12b)	.
.	12ee'J	.
2r	(12ccL	.
.	12a)	.
.	12dd'J	.
.	(12bL<	.
.	12g#)	.
.	12cc'J	.
=76	=76	=76
4AA 4C 4E 4A	12r	.
.	12a'L<	.
.	12b-'J	.
4A 4c 4e	12bn'L	.
.	12cc'	.
.	12cc#'J	.
4r	12dd'L	.
.	12dd#'	.
.	12ee'J	.
8.AA 8.C 8.E 8.AL	(12ffzL	.
.	12ee)	.
.	12a'J	.
16AA 16C 16E 16AJk	.	.
=77	=77	=77
*^	*	*
2.ryyy	4BB 4D 4E 4G#	12r	.
.	.	12g#'L<	.
.	.	12a'J	.
.	4B 4d 4e	12a#'L	.
.	.	12b'	.
.	.	12cc'J	.
.	4r	12cc#'L	.
.	.	12dd'	.
.	.	12dd#'J	.
!	!	!LO:DY:rj	!
8.E 8.G#L	8.BB 8.DL	(12eezL	.
.	.	12ddn)	.
.	.	12g#'J	.
16E 16G#Jk	16BB 16DJk	.	.
*v	*v	*	*
=78	=78	=78
*	*^	*
4C 4E 4A	12r	4ryyy	.
.	12a'>L	.	.
.	12b'J	.	.
4ryy	12cc'L	4c 4e 4a	.
.	12dd'	.	.
.	12dd#'J	.	.
2r	12ee'L<	4ryyy	.
.	12ff'	.	.
.	12ff#'J	.	.
.	12gg'L<	4ryyy	.
.	12gg#'	.	.
.	12aa'J	.	.
*	*v	*v	*
=79	=79	=79
4r	12bb-'L	.
.	12bbn'	.
.	12ccc'J	.
4F 4A	12ccc#'L	.
.	12ddd'	.
.	12ddd#'J	.
4E 4A 4c	(12eeeL	sf
.	12cccn)	.
.	12aa'J	.
4E 4B 4d	(12ddd#L	sf
.	12bb)	.
.	12gg#'J	.
=80	=80	=80
4A 4c	12aa'L	.
.	12ff'	.
.	12ee'J	.
4r	12dd'L	.
.	12cc'	.
.	12b'J	.
12r	4a\	.
12A'L	.	.
12G'J	.	.
12F'L	4r	.
12E'	.	.
12D'J	.	.
=81	=81	=81
!	!LO:TX:i:a:t=legato	!
4C	(12cL	pp
.	12c#	.
.	12dJ	.
4r	12e-L	.
.	12en	.
.	12fJ	.
2r	12f#L	.
.	12g	.
.	12g#J	.
.	12aL	.
.	12b-	.
.	12bnJ)	.
=82	=82	=82
*	*^	*
12r	(4ccz<	2d	.
(12GGL	.	.	.
12AAJ	.	.	.
12AA#L	4b)	.	.
12BB	.	.	.
12CJ	.	.	.
12C#L	2r	2ry	.
12D	.	.	.
12D#J	.	.	.
12EL	.	.	.
12F	.	.	.
12F#J)	.	.	.
*	*v	*v	*
=83	=83	=83
*^	*	*
!LO:DY:rj	!	!	!
(4Gz<	2D	12r	.
.	.	(12dL	.
.	.	12eJ	.
4Fn)	.	12fL	.
.	.	12f#	.
.	.	12gJ	.
2ry	2r	12g#L	.
.	.	12a	.
.	.	12b-J	.
.	.	12bnL>	.
.	.	12cc	.
.	.	12cc#J)	.
*v	*v	*	*
=84	=84	=84
*	*^	*
12r	(4ddz<	2e	.
(12AAL	.	.	.
12BBJ	.	.	.
12CL	4ccn)	.	.
12C#	.	.	.
12DJ	.	.	.
12D#L	2r	2ry	.
12E	.	.	.
12FJ	.	.	.
12F#L	.	.	.
12G	.	.	.
12G#J)	.	.	.
*	*v	*v	*
=85	=85	=85
*^	*	*
(4Az<	2E	12r	.
.	.	(12eL	.
.	.	12f#J	.
4Gn)	.	12gnL	.
.	.	12a	.
.	.	12a#J	.
2ry	2r	12bL	.
.	.	12cc	.
.	.	12cc#J	.
.	.	12ddL	.
.	.	12dd#	.
.	.	12eeJ	.
*v	*v	*	*
=86	=86	=86
2.D# 2.F# 2.A 2.B	12ee#L	.
.	12ff#	.
.	12ggJ	.
.	12gg#L	.
.	12aa	.
.	12aa#J	.
.	12bbL	.
.	12b	.
.	12cccJ	.
4D# 4F# 4B	12aanL	.
.	12b	.
.	12bbJ	.
=87	=87	=87
4E 4G 4B	12ggL	.
.	12b	.
.	12aaJ	.
4A 4c	12ff#L	.
.	12a	.
.	12ggJ	.
4B	12eeL	.
.	12g	.
.	12ff#J	.
4BB 4A	12dd#L	.
.	12f#X)	.
.	12ff#J	.
=88	=88	=88
4E 4G#	(12eeL	.
.	12g#)	.
.	12ffn'zJ	.
4r	(12ddL	.
.	12b)	.
.	12ee'zJ	.
2r	(12ccL	.
.	12a)	.
.	12dd'zJ	.
.	(12bL<	.
.	12g#X)	.
.	12cc'zJ	.
=89	=89	=89
4AA 4C 4E 4A	12r	ff
.	12a'L<	.
.	12b-'J	.
4A 4c 4e	12bn'L	.
.	12cc'	.
.	12cc#'J	.
4r	12dd'L	.
.	12dd#'	.
.	12ee'J	.
8.AA 8.C 8.E 8.AL	(12ffzL	.
.	12ee)	.
.	12a'J	.
16AA 16C 16E 16AJk	.	.
=90	=90	=90
*^	*	*
2.ryyy	4BB 4D 4E 4G#	12r	.
.	.	12g#'L<	.
.	.	12a'J	.
.	4B 4d 4e	12a#'L	.
.	.	12b'	.
.	.	12cc'J	.
.	4r	12cc#'L	.
.	.	12dd'	.
.	.	12dd#'J	.
8.E 8.G#L	8.BB 8.DL	(12eezL	.
.	.	12ddn)	.
.	.	12g#'J	.
16E 16G#Jk	16BB 16DJk	.	.
*v	*v	*	*
=91	=91	=91
*	*^	*
4C 4E 4A	12r	4ryyy	.
.	12a'>L	.	.
.	12b'>J	.	.
4ryy	12cc'L	4c 4e 4a	.
.	12cc#'	.	.
.	12dd'J	.	.
2r	12dd#'L<	4ryyy	.
.	12ee'	.	.
.	12ff'J	.	.
.	12ff#'L<	4ryyy	.
.	12gg'	.	.
.	12gg#'J	.	.
*clefG2	*	*	*
*	*v	*v	*
=92	=92	=92
*^	*	*
2r	1f 1a	12aa'L	.
.	.	12bb-'	.
.	.	12bbn'J	.
.	.	12ccc'L	.
.	.	12bb'	.
.	.	12ddd'J	.
2dd#	.	12ccc'L	.
.	.	12bb'	.
.	.	12ddd'J	.
.	.	12ccc'L	.
.	.	12bb'	.
.	.	12aa'J	.
*v	*v	*	*
=93	=93	=93
*	*^	*
12r	2ryyy	[<2gg#	pp
12e'L	.	.	.
12f'J	.	.	.
12f#'L	.	.	.
12g'	.	.	.
12g#'J	.	.	.
12a'L	2eee	2gg#]	.
12a#'	.	.	.
12b'J	.	.	.
(12ccL	.	.	.
12b)	.	.	.
12e'J	.	.	.
*	*v	*v	*
=94	=94	=94
12r	1ff# 1aa 1ddd#	.
12f#L	.	.
12g#J	.	.
12aL	.	.
12a#	.	.
12bJ	.	.
(12ccL	.	.
12an)	.	.
12f#'J	.	.
(12ccL	.	.
12a)	.	.
12f#'J	.	.
=95	=95	=95
12r	2.ee 2.gg# 2.bb 2.dddn	.
12g#'L<	.	.
12a'J	.	.
12b'L	.	.
12cc'	.	.
12cc#'J	.	.
12dd'L	.	.
12dd#'	.	.
12ee'J	.	.
12ffn'L	4r	.
12ff#'	.	.
12ggn'J	.	.
=96	=96	=96
1r	12gg#'L	.
.	12aa'	.
.	12aa#'J	.
.	12bb'L	.
.	12cccn'	.
.	12ccc#'J	.
.	12ddd'L	.
.	12ccc#'	.
.	12bb'J	.
.	12aan'L	.
.	12gg#'	.
.	12ff#'J	.
=97	=97	=97
1r	12ee'L	.
.	12dd'	.
.	12cc#'J	.
.	12b'L	.
.	12a'	.
.	12g#'J	.
.	12b'zL	.
.	12a'	.
.	12g#'J	.
.	12f#'L	.
.	12e'	.
.	12d#'J	.
*clefF4	*	*
=98	=98	=98
4ryy	12f#'zL	.
.	12e'	.
.	12dn'J	.
12c#'L>	4ryy	.
12B'	.	.
12A#'J	.	.
12d'z>L>	4ryy	.
12c#'	.	.
12B'J	.	.
12An'L>	4ryy	.
12G#'	.	.
12F#'J	.	.
=99	=99	=99
12B'z>L>	1ryy	.
12A'	.	.
12G#'J	.	.
12F#'L>	.	.
12E'	.	.
12D#'J	.	.
12F#'z>L>	.	.
12E'	.	.
12Dn'J	.	.
12C#'L	.	.
12BB'	.	.
12AA#J	.	.
=100||	=100||	=100||
*k[f#c#g#]	*k[f#c#g#]	*k[f#c#g#]
*A:	*A:	*A:
12D'L	1ryy	.
12C#'	.	.
12BB'J	.	.
12AAn'L	.	.
12GG#'	.	.
12FF#'J	.	.
12EE'L<	.	.
12FF#'	.	.
12EE'J	.	.
12DD'L<	.	.
12CC#'	.	.
12BBB'J	.	.
=101	=101	=101
32AAALLL	4r	.
32BBB	.	.
32CC#	.	.
32DD	.	.
32EE	.	.
32FF#	.	.
32GG#	.	.
32AAJJJ	.	.
32BBLLL	4r	.
32C#	.	.
32D	.	.
32E	.	.
32F#	.	.
32G#JJJ	.	.
32ALLL>	.	.
32BJJJ	.	.
2r	32c#LLL	.
.	32d	.
.	32e	.
.	32f#	.
.	32g#	.
.	32a	.
.	32b	.
.	32cc#JJJ	.
.	32ddLLL	.
.	32ee	.
.	32ff#	.
.	32gg#	.
.	32aa	.
.	32bb	.
.	32ccc#	.
.	32dddJJJ	.
=102	=102	=102
8BL	(8eeeL	.
8e	16g#Jk)	.
.	16r	.
8d	2g#	.
8eJ	.	.
8BL	.	.
8e	.	.
8d	4g#	.
8eJ	.	.
=103	=103	=103
8c#L	(8.aL	.
8A	.	.
.	32cc#LL	.
.	32bJJJ)	.
8G#	(8.bL	.
8EJ	.	.
.	32ddLL	.
.	32cc#JJJ)	.
8AL	(8.cc#L	.
8c#	.	.
.	32eeLL	.
.	32ddJJJ)	.
8F#	(8.ddL	.
8AJ	.	.
.	16dd#Jk)	.
=104	=104	=104
8EL	(4..eez	.
8c#	.	.
8A	.	.
8c#J	.	.
.	32ddnLLL	.
.	32cc#JJJ	.
8EL	4b)	.
8G#	.	.
8D	4r	.
8G#J	.	.
=105	=105	=105
8C#L	32A<LLL	.
.	32B<	.
.	32A<	.
.	32G#<	.
8A	32A<	.
.	32B<	.
.	32c#<	.
.	32d#<JJJ	.
8E	32eLLL<	.
.	32f#	.
.	32g#	.
.	32a	.
8AJ	32b	.
.	32cc#	.
.	32dd#X	.
.	(32eeJJJ	.
8BBL	24ff#LL	.
.	24gg#	.
.	24aa	.
8G#	24bb	.
.	24ccc#	.
.	24ddd#XJJ)	.
8E	8eeeL	.
8G#J	8eeeJ	.
=106	=106	=106
8AA#L	(8eeeL	.
8F#	16f#Jk)	.
.	16r	.
8E	2f#	.
8F#J	.	.
8C#L	.	.
8A#X	.	.
8E	4f#	.
8A#J	.	.
=107	=107	=107
*^	*	*
8EL	2.BB	(8g#L	.
8B	.	16anL	.
.	.	16g#JJ	.
8G#	.	8f#L	.
8BJ	.	8g#J	.
8F#L	.	8bL	.
8B	.	8a	.
8An	4BB	8f#	.
8BJ	.	8d#J)	.
=108	=108	=108	=108
8r	2.E	2d# (2f#	.
(<8AL	.	.	.
8B	.	.	.
8AJ	.	.	.
4G#)	.	16eLL)	.
.	.	(16ee	.
.	.	16dd#X	.
.	.	16eeJJ	.
4ry	4r	16ff#LL	.
.	.	16ee	.
.	.	16b	.
.	.	16cc#JJ)	.
=109	=109	=109	=109
*	*	*^	*
2r	[1E	(2ddn	16r	.
.	.	.	16bLL	.
.	.	.	16a#	.
.	.	.	16bJJ	.
.	.	.	16cc#LL	.
.	.	.	16b	.
.	.	.	16f#	.
.	.	.	16g#JJ	.
8rA	.	2cc#)	2an	.
(16ALL	.	.	.	.
16G#JJ	.	.	.	.
16ALL	.	.	.	.
16B	.	.	.	.
16c#	.	.	.	.
16d#JJ)	.	.	.	.
*	*	*v	*v	*
=110	=110	=110	=110
4e	(>8EL]	4g# 4b	.
.	16D#L	.	.
.	16EJJ	.	.
4ryyy	16F#LL	4r	.
.	16E	.	.
.	16D#	.	.
.	16EJJ)	.	.
4ryyy	[2EEz	16r	.
.	.	(16eLL	.
.	.	16d#	.
.	.	16eJJ	.
4ryyy	.	16f#LL	.
.	.	16e	.
.	.	16B	.
.	.	16c#JJ)	.
*v	*v	*	*
=111	=111	=111
*	*^	*
2EE_	16r	2dn	.
.	(16bLL	.	.
.	16a#	.	.
.	16bJJ	.	.
.	16cc#LL	.	.
.	16b	.	.
.	16f#	.	.
.	16g#JJ)	.	.
8EEL]	2an	2c#	.
16FF#L	.	.	.
16GG#JJ	.	.	.
16AALL	.	.	.
16BB	.	.	.
16C#	.	.	.
16D#JJ	.	.	.
*	*v	*v	*
=112	=112	=112
16ELL	4B 4g#	.
16F#	.	.
16G#	.	.
16AJJ	.	.
16BLL	4r	.
16A	.	.
16G#	.	.
16F#JJ	.	.
16ELL	2r	.
16F#	.	.
16E	.	.
16DnJJ	.	.
16C#LL<	.	.
16D	.	.
16C#	.	.
16BBJJ	.	.
=113	=113	=113
*^	*	*
32ALLL	8AAL	4ryy	.
32B	.	.	.
32A	.	.	.
32G#	.	.	.
32A	8E	.	.
32B	.	.	.
32c#	.	.	.
32dJJJ	.	.	.
4ryy	8C#	32eLLL	.
.	.	32f#	.
.	.	32g#	.
.	.	32a	.
.	8EJ	32b	.
.	.	32cc#	.
.	.	32dd	.
.	.	32eeJJJ	.
*	*	*tuplet	*
4ryy	8AAL<	24ff#LL	.
.	.	24gg#	.
.	.	24aa	.
.	8E	24bb	.
.	.	24ccc#	.
.	.	24dddJJ	.
4ryy	8C#	8eee'L	.
.	8EJ	8eee'J	.
*v	*v	*	*
=114	=114	=114
8BBL	(8eeeL	.
8E	16g#Jk)	.
.	16r	.
8D	2g#	.
8EJ	.	.
8BBL	.	.
8E	.	.
8C#	4a	.
8AJ	.	.
=115	=115	=115
*	*^	*
8DL	4ryyy	8.bSSsL	.
8B	.	.	.
.	.	16cc#Jk	.
8F#	4ryyy	12dd'>L	.
.	.	12ee'>	.
8BJ	.	.	.
.	.	12ff#'>J	.
8EL	(4an	4ryy	.
8c#	.	.	.
8E	8cc#L	4g#	.
8dJ	8bJ)	.	.
*	*v	*v	*
=116	=116	=116
*^	*	*
8r	2.A	2g# (>2b	.
8dL	.	.	.
8e	.	.	.
8dJ	.	.	.
4c#	.	8a)	.
!	!	!LO:TX:b:i:t=dolce	!
.	.	16ff#LL	.
.	.	16eeJJ	.
4ry	4r	16ddLL	.
.	.	16cc#	.
.	.	16b	.
.	.	16aJJ	.
*v	*v	*	*
=117	=117	=117
4r	16g#LL	.
.	16a	.
.	16b	.
.	16aJJ	.
16BLL	4g#	.
16d	.	.
16e	.	.
16dJJ	.	.
4B	8r	.
.	16eeLL	.
.	16ddJJ	.
4r	16cc#LL	.
.	16b	.
.	16a	.
.	16g#JJ	.
=118	=118	=118
*	*^	*
4r	16aLL>	4ryyy	.
.	16b	.	.
.	16cc#	.	.
.	16bJJ	.	.
4ryyy	4a	16c#LL	.
.	.	16e	.
.	.	16a	.
.	.	16eJJ	.
4ryyy	8rff	4c#	.
.	16aaLL	.	.
.	16gg#JJ	.	.
4r	16ff#LL>	4ryyy	.
.	16ee	.	.
.	16dd	.	.
.	16cc#JJ	.	.
*	*v	*v	*
=119	=119	=119
4d> 4f#>	16bLL>	.
.	16dd	.
.	16ff#	.
.	16eeJJ	.
4r	16ddLL>	.
.	16cc#	.
.	16b	.
.	16aJJ	.
4E 4B 4d	16g#LL	.
.	16a	.
.	16b	.
.	16aJJ	.
4r	16g#LL	.
.	16f#	.
.	16e	.
.	16dJJ	.
=120	=120	=120
4A	16c#LL	.
.	16a	.
.	16e	.
.	16cc#JJ	.
4r	16aLL	.
.	16ee	.
.	16cc#	.
.	16aaJJ	.
2r	16eeLL	.
.	16ccc#	.
.	16aa	.
.	16eeeJJ	.
.	16dddLL	.
.	16ccc#	.
.	16bb	.
.	16aaJJ	.
=121	=121	=121
4r	16gg#LL	.
.	16aa	.
.	16bb	.
.	16aaJJ	.
*clefG2	*	*
16bLL	4gg#	.
16dd	.	.
16ee	.	.
16ddJJ	.	.
4b	16r	.
.	16dddLL	.
.	16eee#	.
.	16dddnJJ	.
4r	16ccc#LL	.
.	16bb	.
.	16aa	.
.	16gg#JJ	.
=122	=122	=122
4r	16aaLL	.
.	16bb	.
.	16ccc#	.
.	16bbJJ	.
16cc#LL	4aa	.
16ee	.	.
16aa	.	.
16eeJJ	.	.
4cc#	8r	.
.	16ccc#LL	.
.	16bbJJ	.
4r	16aaLL	.
.	16gg#	.
.	16ff#	.
.	16eeJJ	.
=123	=123	=123
4f# 4a	16dd#LL	.
.	16ee	.
.	16ff#	.
.	16gg#JJ	.
4r	16aaLL	.
.	16gg#	.
.	16ff#	.
.	16eeJJ	.
*clefF4	*	*
4F# 4A	16dd#LL	.
.	16cc#	.
.	16b	.
.	16aJJ	.
4r	16g#LL	.
.	16f#	.
.	16e	.
.	16d#XJJ	.
=124	=124	=124
16ELL	4e	.
16e	.	.
16F#	.	.
16eJJ	.	.
16G#LL	4r	.
16e	.	.
16A	.	.
16eJJ	.	.
16BLL	2r	.
16e	.	.
16c#	.	.
16eJJ	.	.
16dLL	.	.
16e#	.	.
16f#	.	.
16e#JJ	.	.
=125	=125	=125
16dnLL	2gg#	.
16e	.	.
16B	.	.
16eJJ	.	.
16G#LL	.	.
16e	.	.
16E	.	.
16eJJ	.	.
16DLL	(8aaL	.
16e	.	.
16E	8gg#)	.
16eJJ	.	.
16DLL	(8ff#M	.
16e	.	.
16E	8eeJ)	.
16eJJ	.	.
=126	=126	=126
16C#LL	4ee	.
16e	.	.
16E	.	.
16eJJ	.	.
.	(eeq8	.
16ALL	4.ccc#z)	.
16e	.	.
16c#	.	.
16eJJ	.	.
16ALL	.	.
16e	.	.
16c#	(16dddLL	.
16eJJ	16ccc#JJ)	.
16ALL	8bb'L	.
16e	.	.
16c#	8aa'J	.
16eJJ	.	.
=127	=127	=127
16dLL	2gg#	.
16e	.	.
16B	.	.
16eJJ	.	.
16G#LL	.	.
16e	.	.
16E	.	.
16eJJ	.	.
16DLL	(8aaL	.
16e	.	.
16E	8gg#)	.
16eJJ	.	.
16DLL	(8ff#M	.
16e	.	.
16E	8eeJ)	.
16eJJ	.	.
=128	=128	=128
16C#LL	4ee	.
16e	.	.
16E	.	.
16eJJ	.	.
.	(16eeqLL	.
.	16aaq	.
.	16ccc#qJJ)	.
16ALL	4.eeez	.
16e	.	.
16c#	.	.
16eJJ	.	.
16ALL	.	.
16e	.	.
16c#	(16ddd#LL	.
16eJJ	16eeeJJ	.
16ALL	16dddnLL	.
16e	16ccc#	.
16c#	16bb	.
16eJJ	16aaJJ)	.
=129	=129	=129
16dLL	2gg#SsS	.
16e	.	.
16B	.	.
16eJJ	.	.
16G#LL	.	.
16e	.	.
16E	.	.
16eJJ	.	.
16DLL	(8aaL	.
16e	.	.
16E	8gg#)	.
16eJJ	.	.
16DLL	(8ff#M	.
16e	.	.
16E	8eeJ)	.
16eJJ	.	.
=130	=130	=130
*	*^	*
16C#LL	2ryyy	8ee	.
16e	.	.	.
16E	.	4a 4aa	.
16eJJ	.	.	.
16C#LL	.	.	.
16e	.	.	.
16E	.	8gn 8ggn	.
16eJJ	.	.	.
16CnLL	4ff#SsS	4.f#	.
16d	.	.	.
16D	.	.	.
16dJJ	.	.	.
16CLL	(8ff#L	.	.
16d	.	.	.
16D	8aaJ)	8a	.
16dJJ	.	.	.
*	*v	*v	*
=131	=131	=131
16BBLL	(4a (4aa	.
16d	.	.
16D	.	.
16dJJ	.	.
16BBLL	4gn) 4ggn)	.
16d	.	.
16D	.	.
16dJJ	.	.
16BBLL	4r	.
16c#X	.	.
16C#X	.	.
16c#JJ	.	.
16BBLL	4e#\ 4ee#\	.
16c#	.	.
16C#	.	.
16c#JJ	.	.
=132	=132	=132
*	*^	*
16AA#LL	2ryyy	8g# (8gg#	.
16c#	.	.	.
16C#	.	4f#^ 4ff#^	.
16c#JJ	.	.	.
16AA#LL	.	.	.
16c#	.	.	.
16C#	.	8en\ 8een\)	.
16c#JJ	.	.	.
16AAnLL	4dd#SsS	4.d#	.
16B	.	.	.
16BB	.	.	.
16BJJ	.	.	.
16AALL	(8dd#L	.	.
16B	.	.	.
16BB	8ff#J)	8f#	.
16BJJ	.	.	.
*	*v	*v	*
=133	=133	=133
16GG#LL	4f# (4ff#	>
16B	.	.
16BB	.	.
16BJJ	.	.
16GG#LL	4e\ 4ee\)	]
16B	.	.
16BB	.	.
16BJJ	.	.
16GGnLL	4r	.
16A	.	.
16AA	.	.
16AJJ	.	.
16GGLL	4c# 4cc#	.
16A	.	.
16AA	.	.
16AJJ	.	.
=134	=134	=134
16FF#LL	8e 8ee	.
16A	.	.
16AA	4d 4dd	.
16AJJ	.	.
16EELL<	.	.
16A	.	.
16AA	4c# 4cc#	.
16AJJ	.	.
16DDLL<	.	.
16A	.	.
16AA	4B 4b	.
16AJJ	.	.
16DD#LL<	.	.
16A	.	.
16AA	8f#/ 8ff#/	.
16AJJ	.	.
=135	=135	=135
*	*^	*
16EELL	2aSSs	2ryyy	.
16AA	.	.	.
16C#	.	.	.
16EJJ	.	.	.
16EELL	.	.	.
16AA	.	.	.
16C#	.	.	.
16EJJ	.	.	.
16EELL	(4.cc#	2d 2g#	.
16BB	.	.	.
16D	.	.	.
16EJJ	.	.	.
16EELL	.	.	.
16BB	.	.	.
16D	8b)	.	.
16EJJ	.	.	.
*	*v	*v	*
=136	=136	=136
24r	4c# 4a	.
24AALL	.	.
24C#	.	.
24E	.	.
24A	.	.
24c#JJ	.	.
4r	24eLL	.
.	24a	.
.	24cc#	.
.	24ee	.
.	24aa	.
.	24ccc#JJ	.
8AL	4eee'	.
8e	.	.
8c#	4eee'	.
8eJ	.	.
=137	=137	=137
8BL	(8eeeL	.
8e	16g#Jk)	.
.	16r	.
8d	2g#	.
8eJ	.	.
8BL	.	.
8e	.	.
8d	4g#	.
8eJ	.	.
=138	=138	=138
8c#L	8r	.
8e	(16g#LL	.
.	16aJJ)	.
8G#	8r	.
8eJ	(16a#LL	.
.	16bJJ)	.
8AL	8r	.
8e	(16b#LL	.
.	16cc#JJ)	.
8F#	8r	.
8AJ	(16cc#LL	.
.	16ddJJ)	.
=139	=139	=139
8EL	[4ee	.
8c#	.	.
8A	16eeLL]	.
.	(32dd#L	.
.	32eeJJJ	.
8c#J	32ff#LLL	.
.	32ee	.
.	32ddn	.
.	32cc#JJJ	.
8EL	4bn)	.
8G#	.	.
8D	4r	.
8G#J	.	.
=140	=140	=140
8C#L	8r	.
8A	16ALL	.
.	16c#JJ	.
8E	24eLL	.
.	24a	.
.	24cc#	.
8AJ	24ee	.
.	24gg#	.
.	24ccc#JJ	.
8C#L	4eee'	.
8A	.	.
8E	4eee'	.
8AJ	.	.
=141	=141	=141
8C#L	(8eeeL	.
8B-	16b-Jk)	.
.	16r	.
8E	[4b-	.
8B-J	.	.
8CnL	(8b-L]	<
8B-	8ggn	[
8E	8ee	>
8B-J	8b-J)	]
=142	=142	=142
8CnL	(8aL	.
8A	8ccn	.
8Fn	8ffn	.
8AJ	8ccJ	.
8CL	8aaL	.
8A	8ff	.
8F	8cc	.
8AJ	8aJ)	.
=143	=143	=143
8CnL	4b-T	.
8B-	.	.
.	(16aqLL	.
.	16b-qJJ)	.
8E	[4ggn	.
8B-J	.	.
8CL	8ggL]	.
8B-	(8ee	.
8E	8ccn	.
8B-J	8b-J)	.
=144	=144	=144
8CnL	16aLL	.
.	16ccn	.
8A	16ffn	.
.	16eeJJ	.
8Fn	16ffLL	.
.	16cc	.
8AJ	16aa	.
.	16gg#XJJ	.
8CL	16aaLL	.
.	16ff	.
8A	16cccn	.
.	16bbnJJ	.
8F	16cccLL	.
.	16aa	.
8AJ	16ff	.
.	16ccJJ	.
=145	=145	=145
8CnL	(4b-T	.
8B-	.	.
.	(16aqLL	.
.	16b-qJJ)	.
8E	2ggnz	.
8B-J	.	.
8CL	.	.
8B-	.	.
8E	4b-)	.
8B-J	.	.
=146	=146	=146
8C#XL	(4a#	<
8A#	.	.
8E	2ggn	.
8A#J	.	[
8C#L	.	>
8A#	.	.
8E	4a#)	.
8A#J	.	]
=147	=147	=147
8DL	(8bnL	.
8Bn	8ff#X	.
8F#X	8ee#	>
8BJ	8ff#J	.
8DL	8eenL	.
8B	8dd	.
8F#	8cc#	.
8BJ	8bJ)	]]
=148	=148	=148
8EL	(2anSSs	pp
8c#	.	.
8A	.	.
8c#J	.	.
8EL	4.cc#	.
8d	.	.
8G#	.	.
8dJ	8b)	.
=149	=149	=149
4A 4c#	8a	mf
.	8c# 8eL	.
*tuplet	*	*
(24AAALL	8c# 8e	.
24CC#	.	.
24EE	.	.
24AA	8c# 8eJ	.
24C#	.	.
24EJJ)	.	.
4A'	8c# 8eL	.
.	8c# 8e	.
4A'	8c# 8e	.
.	8c# 8eJ	.
=150	=150	=150
*^	*	*
8B 8d 8eL	4G#	4r	.
8B 8d 8e	.	.	.
8B 8d 8e	4r	(24eLL	.
.	.	24g#	.
.	.	24b	.
8B 8d 8eJ	.	24ee	.
.	.	24gg#	.
.	.	24bbJJ)	.
2ryyy	8G# 8B 8eL	4ddd'	.
.	8G# 8B 8e	.	.
.	8G# 8B 8e	4ddd'	.
.	8G# 8B 8eJ	.	.
*v	*v	*	*
=151	=151	=151
8A 8c# 8eL	4ccc#	.
8A 8c# 8eJ	.	.
24AAALL	8A 8c# 8eL	.
24CC#	.	.
24EE	.	.
24AA	8A 8c# 8eJ	.
24C#	.	.
24EJJ	.	.
4A'	8c# 8eL	.
.	8c# 8e	.
4A'	8c# 8e	.
.	8c# 8eJ	.
=152	=152	=152
*^	*	*
8B 8d 8eL	4G#	4r	.
8B 8d 8e	.	.	.
8B 8d 8e	4ryyy	24eLL	.
.	.	24g#	.
.	.	24b	.
8B 8d 8eJ	.	24ee	.
.	.	24gg#	.
.	.	24bbJJ	.
8G# 8B 8eL	2ryy	4ddd'	.
8G# 8B 8e	.	.	.
8G# 8B 8e	.	4ddd'	.
8G# 8B 8eJ	.	.	.
*v	*v	*	*
=153	=153	=153
8A 8c# 8eL	4ccc#	.
8A 8c# 8eJ	.	.
24AAALL	8A 8c# 8eL	.
24CC#	.	.
24EE	.	.
24AA	8A 8c# 8eJ	.
24C#	.	.
24EJJ	.	.
4A'	8c# 8eL	.
.	8c# 8e	.
4A'	8c# 8e	.
.	8c# 8eJ	.
=154	=154	=154
8Gn 8AL	4c# 4e	f
8G 8A	.	.
8G 8A	24ALL	.
.	24c#	.
.	24e	.
8G 8AJ	24a	.
.	24cc#	.
.	24eeJJ	.
8G 8A 8c#L	4aa'	.
8G 8A 8c#	.	.
8G 8A 8c#	4aa'	.
8G 8A 8c#J	.	.
=155	=155	=155
8F# 8AL	(8aaL	.
8F# 8A	16dJk)	.
.	16r	.
8F# 8A	2d	.
8F# 8AJ	.	.
8Fn 8AL	.	.
8F 8A	.	.
8F 8A	4d#	.
8F 8AJ	.	.
=156	=156	=156
8EL<	(>4.c# 4.e	p
8E	.	.
8EE	.	.
8EJ	8A 8c#	.
8EEL<	4.B 4.d	.
8E	.	.
8EE	.	.
8EJ	8G#< 8B<)	.
=157	=157	=157
8AAL	4c#<	.
8A	.	f
8A	(24ALL	.
.	24c#	.
.	24e	.
8AJ	24a	.
.	24cc#	.
.	24eeJJ)	.
8Gn 8A 8c#L	4aa'	.
8G 8A 8c#	.	.
8G 8A 8c#	4aa'	.
8G 8A 8c#J	.	.
=158	=158	=158
!	!LO:DY:rj	!
8F# 8AL	(8aazL	.
8F# 8A	16dJk)	.
.	16r	.
8F# 8A	2d	.
8F# 8AJ	.	.
8F# 8AL	.	.
8F# 8A	.	.
8F# 8A	4aa	.
8F# 8AJ	.	.
=159	=159	=159
8Fn 8An 8cnL	(8aaL	.
8F 8A 8c	16e-Jk)	.
.	16r	.
8F 8A 8c	2e-	.
8F 8A 8cJ	.	.
8F 8A 8cL	.	.
8F 8A 8c	.	.
8F 8c 8e-	4aa	.
8F 8c 8e-J	.	.
=160	=160	=160
*^	*^	*
!	!	!	!	!LO:DY:rj
2B- 2d	1Fn	2ryyy	(8bb-L	sf
.	.	.	8aa)	.
.	.	.	8ggn'	.
.	.	.	8ffn'J	.
2cn 2e-	.	2ee-	8rg	.
.	.	.	8a'>L	.
.	.	.	8gn'>	.
.	.	.	8fn'>J	.
*v	*v	*	*	*
=161	=161	=161	=161
!	!	!	!LO:DY:rj
2Fn 2B- 2d	2dd	(8b-L	sf
.	.	8a)	.
.	.	8gn'	.
.	.	8fn'J	.
2FFn 2Cn 2E-	8r	2e-	.
.	8a'<L	.	.
.	8g'<	.	.
.	8f'<J	.	.
*	*v	*v	*
=162	=162	=162
2.FFn 2.BB- 2.D	12d' 12b-'L	ff
.	12B-'	.
.	12Bn'J	.
*	*Xtuplet	*
.	12cn'L	.
.	12c#'	.
.	12d'J	.
.	12e-'L	.
.	12en'	.
.	12fn'J	.
8.FF 8.BB- 8.DL	(12g#zL	.
.	12f)	.
.	12B-'J	.
16FF 16BB- 16DJk	.	.
=163	=163	=163
2.FFn 2.Cn 2.E-	12r	sf
.	12A'L	.
.	12B-'J	.
.	12Bn'L	.
.	12cn'	.
.	12c#'J	.
.	12d'L	.
.	12e-'	.
.	12en'J	.
!	!LO:DY:rj	!
8.FF 8.C 8.E-L	(12fnzL	.
.	12e-)	.
.	12A'J	.
16FF 16C 16E-Jk	.	.
=164	=164	=164
2.FFn 2.BB- 2.D	12r	sf
.	12B-'L	.
.	12Bn'J	.
.	12cn'L	.
.	12c#'	.
.	12d'J	.
.	12e-'L	.
.	12en'	.
.	12fn'J	.
8.FF 8.BB- 8.DL	12f#'L	.
.	12gn'	.
.	12g#'J	.
16FF 16BB- 16DJk	.	.
=165	=165	=165
2.FF#X 2.AA 2.Cn 2.D#	12r	sf
.	(12aL<	.
.	12bnJ)	.
.	12ccn'L	sf
.	(12a	.
.	12bJ)	.
.	12cc'L	sf
.	(12a	.
.	12bJ)	.
8.FF# 8.AA 8.C 8.D#L	12cc'L	sf
.	(12b	.
.	12aJ)	.
16FF# 16AA 16C 16D#Jk	.	.
=166	=166	=166
4EE 4GG# 4BB 4Ez	12g#X'L	.
.	12e'	.
.	12fn'J	.
4E 4G# 4Bz	12f#'L	.
.	12gn'	.
.	12g#'J	.
4r	12a'L	.
.	12a#'	.
.	12b'J	.
8.E 8.G# 8.BL	(12ccnL	.
.	12b)	.
.	12e'J	.
16E 16G# 16BJk	.	.
=167	=167	=167
4E 4A 4cn	12r	.
.	12f#X'L	.
.	12g#'J	.
4E 4A 4cz	12a'L	.
.	12b'	.
.	12ccn'J	.
4r	12cc#'L	.
.	12dd'	.
.	12dd#'J	.
8.E 8.A 8.cL	12ee'L	.
.	12ee#'	.
.	12ff#'J	.
16E 16A 16cJk	.	.
=168	=168	=168
4E 4B 4d	12r	.
.	12g#'L<	.
.	12a'J	.
4E 4B 4dz	12a#'L	.
.	12b'	.
.	12ccn'J	.
4r	12cc#'L	.
.	12dd'	.
.	12dd#'J	.
8.E 8.B 8.dL	(12eeL	.
.	12ddn)	.
.	12g#'J	.
16E 16B 16dJk	.	.
=169	=169	=169
4E 4c#X 4e	12r	.
.	12a'L<	.
.	12b'J	.
4E 4c# 4ez	12cc#X'L	.
.	12dd'	.
.	12dd#'J	.
4r	12ee'L	.
.	12ee#'	.
.	12ff#'J	.
8.E 8.c# 8.eL	12ggn'L	.
.	12gg#'	.
.	12aa'J	.
16E 16c# 16eJk	.	.
=170	=170	=170
4E 4G# 4B 4d	12r	.
.	12b'L	p
.	12cc#X'J	.
4r	12dd'L	.
.	12dd#'	.
.	12ee'J	.
2r	12ee#'L	.
.	12ff#'	.
.	12ggn'J	.
.	12gg#'L	.
.	12aa'	.
.	12aa#'J	.
=171	=171	=171
1r	12bb'L	>
.	12cccn'	.
.	12ccc#'	.
.	12ddd'	.
.	12ccc#'	.
.	12bb'J	.
.	12aa'L	.
.	12gg#'	.
.	12ff#'	.
.	12ee'	.
.	12dd'	.
.	12cc#'J	.
=172	=172	=172
2ryyy	12b'L	.
.	12a'	.
.	12g#'	.
.	12f#'	.
.	12e'	.
.	12d'J	.
12c#'L	2ryyy	.
12B'	.	.
12A'	.	.
12G#'	.	.
12F#'	.	.
12E'J	.	.
=173	=173	=173
12D'L	1ry	.
12C#'	.	.
12BB'	.	.
12AA'	.	.
12GG#'	.	.
12FF#'J	.	.
12EE'L<	.	.
12FF#'	.	.
12EE'	.	.
12DD'	.	.
12CC#'	.	.
12BBBJ	.	.
=174	=174	=174
24AAALL	4r	.
24CC#	.	.
24EE	.	.
24AA	.	.
24C#	.	.
24EJJ	.	.
4r	32ALLL<	.
.	32c#	.
.	32e	.
.	32a	.
.	32cc#	.
.	32ee	.
.	32aa	.
.	32ccc#JJJ	.
8AL	4eee'	.
8e	.	.
8c#	4eee'	.
8eJ	.	.
=175	=175	=175
8BL	(8eeeL	.
8e	16g#Jk)	.
.	16r	.
8d	2g#	.
8eJ	.	.
8BL	.	.
8e	.	.
8d	4g#	.
8eJ	.	.
=176	=176	=176
*	*tuplet	*
8c#L	24aLL	.
.	24b	.
.	24a	.
8e	24g#	.
.	24a	.
.	24a#JJ	.
*	*Xtuplet	*
8G#	24bLL	.
.	24cc#	.
.	24b	.
8eJ	24a#	.
.	24b	.
.	24b#JJ	.
8AL	24cc#LL	.
.	24dd	.
.	24cc#	.
8e	24b#	.
.	24cc#	.
.	24anJJ	.
8F#	24ddLL	.
.	24ee	.
.	24dd	.
8AJ	24cc#	.
.	24dd	.
.	24dd#JJ	.
=177	=177	=177
8EL	24eeLL	.
.	24ff#	.
.	24ee	.
8c#	24dd#	.
.	24ee	.
.	24ee#JJ	.
8A	(16ff#LL	.
.	16een)	.
8c#J	16ddn'	.
.	16cc#'JJ	.
8EL	4b	.
8G#	.	.
8D	4r	.
8G#J	.	.
=178	=178	=178
8C#L	8r	.
8A	16ALL	.
.	16c#JJ	.
8E	24eLL	.
.	24a	.
.	24cc#	.
8AJ	24ee	.
.	24aa	.
.	24ccc#JJ	.
8C#L	8eeeL	.
8A	(16ddd#L	.
.	16eeeJJ)	.
8C#	(16ddd#LL	.
.	16eee)	.
8A#J	(16ddd#	.
.	16eeeJJ)	.
=179	=179	=179
8DL	(8eeeL	sfp
8A#	16f#Jk)	.
.	16r	.
8F#	4.f#	.
8A#J	.	.
8DL	.	.
8B	16ddLL	.
.	16cc#JJ	.
8F#	16eeLL	.
.	16dd	.
8BJ	16cc#	.
.	16bJJ	.
=180	=180	=180
8EL	(2aS\	.
8c#	.	.
8A	.	.
8c#J	.	.
8EL	8cc#L	.
8d	8b	.
8B	8dd	.
8dJ	8g#J)	.
=181	=181	=181
8AL	16aLL<	.
.	16g#	.
8e	16b	.
.	16aJJ	.
8c#	16cc#LL	.
.	16b	.
8eJ	16dd	.
.	16cc#JJ	.
8AL	16eeLL	.
.	16dd#	.
8e	16ff#	.
.	16eeJJ	.
8c#	16ddnLL	.
.	16cc#	.
8eJ	16b	.
.	16aJJ	.
=182	=182	=182
8BL	4g#	.
8e	.	.
.	(g#q8	.
8d	(2dd)z	>
8eJ	.	.
8EL	.	.
8e	.	.
8d	8bL<	]
8eJ	8g#J)	.
=183	=183	=183
8AL	16aLL<	.
.	(16g#	.
8e	16b)	.
.	(16aJJ	.
8c#	16cc#LL)	.
.	(16b	.
8eJ	16dd)	.
.	(16cc#JJ	.
8AL	16eeLL)	.
.	(16dd#	.
8e	16ff#)	.
.	(16eeJJ	.
8c#	16ddnLL)	.
.	(16cc#	.
8eJ	16b)	.
.	16aJJ	.
=184	=184	=184
8BL	(8.g#tL	.
8e	.	.
.	32f#LL	.
.	32g#JJJ)	.
8d	(2ddz	>
8eJ	.	.
8EL	.	.
8e	.	.
8d	8bL	.
8eJ	8g#J)	]
=185	=185	=185
4A 4c#	16aLL	<
.	16g#	.
.	16b	.
.	16aJJ	.
4r	16cc#LL	.
.	16b	.
.	16dd	.
.	16cc#JJ	.
2r	16eeLL	.
.	16dd#	.
.	16ff#	.
.	16eeJJ	.
.	16aaLL	.
.	16gg#	.
.	16bb	.
.	16aaJJ	[
=186	=186	=186
2.r	16gg#'LL	f >
.	16ff#'	.
.	16ee'	.
.	16ddn'JJ	.
.	16cc#'LL	.
.	16b'	.
.	16a'	.
.	16g#'JJ	.
.	16f#'LL	.
.	16e'	.
.	16d'	.
.	16c#'JJ	.
16B'LL>	4ryy	]
16A'	.	.
16G#'	.	.
16F#'JJ	.	.
=187	=187	=187
*^	*	*
4E	1EE 1BB 1D	1ryy	p
(4d	.	.	.
4B	.	.	.
4G#)	.	.	.
=188	=188	=188	=188
2D 2E 2G# (2B	(4.AAA	1ryy	.
.	16CC#LL	.	.
.	16EEJJ)	.	.
4C# 4E 4A)	4AA	.	.
4rA	4rGG	.	.
*v	*v	*	*
==	==	==
*-	*-	*-
!!!RDF**kern: > = above
!!!RDF**kern: < = below
!!!verovio: beamFrenchStyle 1
!!!LOR: Durand 1915, plates 9327/9328, Paul Dukas, ed.
!!!URL-vhv: https://verovio.humdrum.org/?file=beethoven/sonatas/sonata02-4.krn
!!!URL-pdf: https://github.com/craigsapp/beethoven-piano-sonatas/blob/master/reference-edition/sonata02-4.pdf
!!!ENC: Craig Stuart Sapp
!!!END: 2008/01/23
!!!END: 2019/07/04
!!!EED: Craig Stuart Sapp
